X: 36883
T: Shoe The Donkey
R: mazurka
M: 3/4
K: Gmajor
|:"Trio"Bc|d2 B2 d2|g4 d2|f2 e2 c2|A4 G2|
F2 A2 c2|f4 e2|1 ed ^cd ed|B4:|2 ed cA FD|G4||

